X:245
T:Unknown (jig)
S:CD "Tripping Maggie" par The McKassons
Z:gabie.letourneau@hotmail.ca
R:jig
M:6/8
L:1/8
K:Em
E2G G2e | edB BAB | G2B A2B | G2A GED | E2G G2e | edB BAB | G2B A2B | d3 d3 ::
edB ABd | edB BAG | g2B A2B | G2A GED | edB ABd | edB BAG | g2B A2B | d3 d3 :|
